; generated by Slic3r 1.2.9 on 2016-10-14 at 14:38:26

; external perimeters extrusion width = 0.50mm
; perimeters extrusion width = 0.72mm
; infill extrusion width = 0.72mm
; solid infill extrusion width = 0.72mm
; top infill extrusion width = 0.72mm

M107
M104 S200 ; set temperature
G28 ; home all axes
G1 Z5 F5000 ; lift nozzle

M109 S200 ; wait for temperature to be reached
G21 ; set units to millimeters
G90 ; use absolute coordinates
M82 ; use absolute distances for extrusion
G92 E0
G1 Z0.350 F7800.000
G1 E-2.00000 F2400.00000
G92 E0
G1 X89.915 Y94.753 F7800.000
G1 E2.00000 F2400.00000
G1 X91.668 Y93.274 E2.07096 F1141.901
G1 X93.820 Y92.481 E2.14192
G1 X95.000 Y92.375 E2.17858
G1 X105.000 Y92.375 E2.48799
G1 X107.259 Y92.772 E2.55895
G1 X109.247 Y93.915 E2.62991 F1141.901
G1 X110.726 Y95.668 E2.70088
G1 X111.519 Y97.820 E2.77184
G1 X111.625 Y99.000 E2.80849
G1 X111.625 Y101.000 E2.87037
G1 X111.228 Y103.259 E2.94133
G1 X110.085 Y105.247 E3.01230
G1 X108.332 Y106.726 E3.08326
G1 X106.180 Y107.519 E3.15422
G1 X105.000 Y107.625 E3.19087
G1 X95.000 Y107.625 E3.50029
G1 X92.741 Y107.228 E3.57125
G1 X90.753 Y106.085 E3.64221
G1 X89.274 Y104.332 E3.71317
G1 X88.481 Y102.180 E3.78413
G1 X88.375 Y101.000 E3.82079
G1 X88.375 Y99.000 E3.88267
G1 X88.772 Y96.741 E3.95363
G1 X89.878 Y94.818 E4.02227
G1 E2.02227 F2400.00000
G92 E0
G1 X104.650 Y100.650 F7800.000
G1 E2.00000 F2400.00000
G1 X95.350 Y100.650 E2.28775 F1141.901
G1 X95.350 Y99.350 E2.32798
G1 X104.650 Y99.350 E2.61573
G1 X104.650 Y100.575 E2.65364
G1 X104.217 Y100.400 F7800.000
G1 X104.338 Y100.000 F7800.000
G1 X95.662 Y100.000 E3.22274 F1141.901
G1 Z0.650 F7800.000
G1 X104.205 Y100.205 F7800.000
G1 X95.795 Y100.205 E3.45634 F600.000
G1 X95.795 Y99.795 E3.46773
G1 X104.205 Y99.795 E3.70134
G1 X104.205 Y100.130 E3.71064
G1 X104.750 Y100.750 F7800.000
G1 X95.250 Y100.750 E3.88628 F600.000
G1 X95.250 Y99.250 E3.91401
G1 X104.750 Y99.250 E4.08965
G1 X104.750 Y100.675 E4.11600
G1 X104.317 Y100.500 F7800.000
G1 Z0.950 F7800.000
G1 X104.205 Y100.205 F7800.000
G1 X95.795 Y100.205 E4.34960 F600.000
G1 X95.795 Y99.795 E4.36099
G1 X104.205 Y99.795 E4.59460
G1 X104.205 Y100.130 E4.60390
G1 X104.750 Y100.750 F7800.000
G1 X95.250 Y100.750 E4.77954 F600.000
G1 X95.250 Y99.250 E4.80727
G1 X104.750 Y99.250 E4.98291
G1 X104.750 Y100.675 E5.00925
G1 X104.317 Y100.500 F7800.000
M106 S255
G1 Z1.250 F7800.000
G1 X104.205 Y100.205 F7800.000
G1 X95.795 Y100.205 E5.24286 F600.000
G1 X95.795 Y99.795 E5.25425
G1 X104.205 Y99.795 E5.48786
G1 X104.205 Y100.130 E5.49716
G1 X104.750 Y100.750 F7800.000
G1 X95.250 Y100.750 E5.67280 F600.000
G1 X95.250 Y99.250 E5.70053
G1 X104.750 Y99.250 E5.87617
G1 X104.750 Y100.675 E5.90251
G1 X104.317 Y100.500 F7800.000
G1 Z1.550 F7800.000
G1 X104.205 Y100.205 F7800.000
G1 X95.795 Y100.205 E6.13612 F600.000
G1 X95.795 Y99.795 E6.14751
G1 X104.205 Y99.795 E6.38111
G1 X104.205 Y100.130 E6.39042
G1 X104.750 Y100.750 F7800.000
G1 X95.250 Y100.750 E6.56606 F600.000
G1 X95.250 Y99.250 E6.59379
G1 X104.750 Y99.250 E6.76943
G1 X104.750 Y100.675 E6.79577
G1 X104.317 Y100.500 F7800.000
G1 Z1.850 F7800.000
G1 X104.205 Y100.205 F7800.000
G1 X95.795 Y100.205 E7.02938 F600.000
G1 X95.795 Y99.795 E7.04077
G1 X104.205 Y99.795 E7.27437
G1 X104.205 Y100.130 E7.28368
G1 X104.750 Y100.750 F7800.000
G1 X95.250 Y100.750 E7.45931 F600.000
G1 X95.250 Y99.250 E7.48705
G1 X104.750 Y99.250 E7.66269
G1 X104.750 Y100.675 E7.68903
G1 X104.317 Y100.500 F7800.000
G1 Z2.150 F7800.000
G1 X104.205 Y100.205 F7800.000
G1 X95.795 Y100.205 E7.92264 F600.000
G1 X95.795 Y99.795 E7.93402
G1 X104.205 Y99.795 E8.16763
G1 X104.205 Y100.130 E8.17693
G1 X104.750 Y100.750 F7800.000
G1 X95.250 Y100.750 E8.35257 F600.000
G1 X95.250 Y99.250 E8.38031
G1 X104.750 Y99.250 E8.55594
G1 X104.750 Y100.675 E8.58229
G1 X104.317 Y100.500 F7800.000
G1 Z2.450 F7800.000
G1 X104.205 Y100.205 F7800.000
G1 X95.795 Y100.205 E8.81590 F600.000
G1 X95.795 Y99.795 E8.82728
G1 X104.205 Y99.795 E9.06089
G1 X104.205 Y100.130 E9.07019
G1 X104.750 Y100.750 F7800.000
G1 X95.250 Y100.750 E9.24583 F600.000
G1 X95.250 Y99.250 E9.27356
G1 X104.750 Y99.250 E9.44920
G1 X104.750 Y100.675 E9.47555
G1 X104.317 Y100.500 F7800.000
G1 Z2.750 F7800.000
G1 X104.205 Y100.205 F7800.000
G1 X95.795 Y100.205 E9.70916 F600.000
G1 X95.795 Y99.795 E9.72054
G1 X104.205 Y99.795 E9.95415
G1 X104.205 Y100.130 E9.96345
G1 X104.750 Y100.750 F7800.000
G1 X95.250 Y100.750 E10.13909 F600.000
G1 X95.250 Y99.250 E10.16682
G1 X104.750 Y99.250 E10.34246
G1 X104.750 Y100.675 E10.36881
G1 X104.317 Y100.500 F7800.000
G1 Z3.050 F7800.000
G1 X104.205 Y100.205 F7800.000
G1 X95.795 Y100.205 E10.60242 F600.000
G1 X95.795 Y99.795 E10.61380
G1 X104.205 Y99.795 E10.84741
G1 X104.205 Y100.130 E10.85671
G1 X104.750 Y100.750 F7800.000
G1 X95.250 Y100.750 E11.03235 F600.000
G1 X95.250 Y99.250 E11.06008
G1 X104.750 Y99.250 E11.23572
G1 X104.750 Y100.675 E11.26207
G1 X104.317 Y100.500 F7800.000
G1 Z3.350 F7800.000
G1 X104.205 Y100.205 F7800.000
G1 X95.795 Y100.205 E11.49567 F600.000
G1 X95.795 Y99.795 E11.50706
G1 X104.205 Y99.795 E11.74067
G1 X104.205 Y100.130 E11.74997
G1 X104.750 Y100.750 F7800.000
G1 X95.250 Y100.750 E11.92561 F600.000
G1 X95.250 Y99.250 E11.95334
G1 X104.750 Y99.250 E12.12898
G1 X104.750 Y100.675 E12.15533
G1 X104.317 Y100.500 F7800.000
G1 Z3.650 F7800.000
G1 X104.205 Y100.205 F7800.000
G1 X95.795 Y100.205 E12.38893 F600.000
G1 X95.795 Y99.795 E12.40032
G1 X104.205 Y99.795 E12.63393
G1 X104.205 Y100.130 E12.64323
G1 X104.750 Y100.750 F7800.000
G1 X95.250 Y100.750 E12.81887 F600.000
G1 X95.250 Y99.250 E12.84660
G1 X104.750 Y99.250 E13.02224
G1 X104.750 Y100.675 E13.04858
G1 X104.317 Y100.500 F7800.000
G1 Z3.950 F7800.000
G1 X104.205 Y100.205 F7800.000
G1 X95.795 Y100.205 E13.28219 F600.000
G1 X95.795 Y99.795 E13.29358
G1 X104.205 Y99.795 E13.52719
G1 X104.205 Y100.130 E13.53649
G1 X104.750 Y100.750 F7800.000
G1 X95.250 Y100.750 E13.71213 F600.000
G1 X95.250 Y99.250 E13.73986
G1 X104.750 Y99.250 E13.91550
G1 X104.750 Y100.675 E13.94184
G1 X104.317 Y100.500 F7800.000
G1 E11.94184 F2400.00000
G92 E0
M107
M104 S0 ; turn off temperature
G28 X0  ; home X axis
M84     ; disable motors

; filament used = 14.0mm (0.1cm3)

; avoid_crossing_perimeters = 0
; bed_shape = 0x0,200x0,200x200,0x200
; bed_temperature = 0
; before_layer_gcode = 
; bridge_acceleration = 0
; bridge_fan_speed = 100
; brim_width = 0
; complete_objects = 0
; cooling = 1
; default_acceleration = 0
; disable_fan_first_layers = 3
; duplicate_distance = 6
; end_gcode = M104 S0 ; turn off temperature\nG28 X0  ; home X axis\nM84     ; disable motors\n
; extruder_clearance_height = 20
; extruder_clearance_radius = 20
; extruder_offset = 0x0
; extrusion_axis = E
; extrusion_multiplier = 1
; fan_always_on = 0
; fan_below_layer_time = 60
; filament_colour = #FFFFFF
; filament_diameter = 3
; first_layer_acceleration = 0
; first_layer_bed_temperature = 0
; first_layer_extrusion_width = 200%
; first_layer_speed = 30
; first_layer_temperature = 200
; gcode_arcs = 0
; gcode_comments = 0
; gcode_flavor = reprap
; infill_acceleration = 0
; infill_first = 0
; layer_gcode = 
; max_fan_speed = 100
; max_print_speed = 80
; max_volumetric_speed = 0
; min_fan_speed = 35
; min_print_speed = 10
; min_skirt_length = 0
; notes = 
; nozzle_diameter = 0.5
; only_retract_when_crossing_perimeters = 1
; ooze_prevention = 0
; output_filename_format = [input_filename_base].gcode
; perimeter_acceleration = 0
; post_process = 
; pressure_advance = 0
; resolution = 0
; retract_before_travel = 2
; retract_layer_change = 0
; retract_length = 2
; retract_length_toolchange = 10
; retract_lift = 0
; retract_restart_extra = 0
; retract_restart_extra_toolchange = 0
; retract_speed = 40
; skirt_distance = 6
; skirt_height = 1
; skirts = 1
; slowdown_below_layer_time = 5
; spiral_vase = 0
; standby_temperature_delta = -5
; start_gcode = G28 ; home all axes\nG1 Z5 F5000 ; lift nozzle\n
; temperature = 200
; threads = 2
; toolchange_gcode = 
; travel_speed = 130
; use_firmware_retraction = 0
; use_relative_e_distances = 0
; use_volumetric_e = 0
; vibration_limit = 0
; wipe = 0
; z_offset = 0
; dont_support_bridges = 1
; extrusion_width = 0
; first_layer_height = 0.35
; infill_only_where_needed = 0
; interface_shells = 0
; layer_height = 0.3
; raft_layers = 0
; seam_position = aligned
; support_material = 0
; support_material_angle = 0
; support_material_contact_distance = 0.2
; support_material_enforce_layers = 0
; support_material_extruder = 1
; support_material_extrusion_width = 0
; support_material_interface_extruder = 1
; support_material_interface_layers = 3
; support_material_interface_spacing = 0
; support_material_interface_speed = 100%
; support_material_pattern = pillars
; support_material_spacing = 2.5
; support_material_speed = 60
; support_material_threshold = 0
; xy_size_compensation = 0
; bottom_solid_layers = 3
; bridge_flow_ratio = 1
; bridge_speed = 60
; external_fill_pattern = rectilinear
; external_perimeter_extrusion_width = 0
; external_perimeter_speed = 50%
; external_perimeters_first = 0
; extra_perimeters = 1
; fill_angle = 45
; fill_density = 20%
; fill_pattern = honeycomb
; gap_fill_speed = 20
; infill_every_layers = 1
; infill_extruder = 1
; infill_extrusion_width = 0
; infill_overlap = 15%
; infill_speed = 80
; overhangs = 1
; perimeter_extruder = 1
; perimeter_extrusion_width = 0
; perimeter_speed = 60
; perimeters = 3
; small_perimeter_speed = 15
; solid_infill_below_area = 70
; solid_infill_every_layers = 0
; solid_infill_extruder = 1
; solid_infill_extrusion_width = 0
; solid_infill_speed = 20
; thin_walls = 1
; top_infill_extrusion_width = 0
; top_solid_infill_speed = 15
; top_solid_layers = 3
