; generated by Slic3r 1.2.9 on 2016-12-20 at 21:12:03

; external perimeters extrusion width = 0.38mm
; perimeters extrusion width = 0.38mm
; infill extrusion width = 0.38mm
; solid infill extrusion width = 0.38mm
; top infill extrusion width = 0.38mm

M107
M104 S200 ; set temperature
G28 ; home all axes
G1 Z5 F5000 ; lift nozzle

M109 S200 ; wait for temperature to be reached
G21 ; set units to millimeters
G90 ; use absolute coordinates
M82 ; use absolute distances for extrusion
G92 E0
G1 Z0.350 F7800.000
G1 E-2.00000 F2400.00000
G92 E0
G1 X76.600 Y96.600 F7800.000
G1 E2.00000 F2400.00000
G1 X123.400 Y96.600 E6.25554 F1800.000
G1 X123.400 Y103.400 E6.87391
G1 X76.600 Y103.400 E11.12945
G1 X76.600 Y96.660 E11.74236
G1 X75.975 Y95.975 F7800.000
G1 X124.025 Y95.975 E16.11154 F1800.000
G1 X124.025 Y104.025 E16.84355
G1 X75.975 Y104.025 E21.21273
G1 X75.975 Y96.035 E21.93928
G1 X75.350 Y95.350 F7800.000
G1 X124.650 Y95.350 E26.42211 F1800.000
G1 X124.650 Y104.650 E27.26775
G1 X75.350 Y104.650 E31.75058
G1 X75.350 Y95.410 E32.59077
G1 X75.696 Y95.550 F7800.000
G1 X76.978 Y102.717 F7800.000
G1 X77.283 Y103.022 E32.63017 F1800.000
G1 X78.171 Y103.022 E32.71122
G1 X76.978 Y101.829 E32.86524
G1 X76.978 Y100.942 E32.94629
G1 X79.058 Y103.022 E33.21493
G1 X79.946 Y103.022 E33.29598
G1 X76.978 Y100.054 E33.67924
G1 X76.978 Y99.166 E33.76029
G1 X80.834 Y103.022 E34.25818
G1 X81.721 Y103.022 E34.33922
G1 X76.978 Y98.279 E34.95173
G1 X76.978 Y97.391 E35.03278
G1 X82.609 Y103.022 E35.75990
G1 X83.496 Y103.022 E35.84095
G1 X77.453 Y96.978 E36.62142
G1 X78.340 Y96.978 E36.70247
G1 X84.384 Y103.022 E37.48294
G1 X85.271 Y103.022 E37.56398
G1 X79.228 Y96.978 E38.34445
G1 X80.115 Y96.978 E38.42550
G1 X86.159 Y103.022 E39.20597
G1 X87.046 Y103.022 E39.28702
G1 X81.003 Y96.978 E40.06749
G1 X81.890 Y96.978 E40.14854
G1 X87.934 Y103.022 E40.92901
G1 X88.821 Y103.022 E41.01005
G1 X82.778 Y96.978 E41.79052
G1 X83.665 Y96.978 E41.87157
G1 X89.709 Y103.022 E42.65204
G1 X90.596 Y103.022 E42.73309
G1 X84.553 Y96.978 E43.51356
G1 X85.441 Y96.978 E43.59461
G1 X91.484 Y103.022 E44.37508
G1 X92.371 Y103.022 E44.45612
G1 X86.328 Y96.978 E45.23659
G1 X87.216 Y96.978 E45.31764
G1 X93.259 Y103.022 E46.09811
G1 X94.146 Y103.022 E46.17916
G1 X88.103 Y96.978 E46.95963
G1 X88.991 Y96.978 E47.04068
G1 X95.034 Y103.022 E47.82115
G1 X95.921 Y103.022 E47.90220
G1 X89.878 Y96.978 E48.68266
G1 X90.766 Y96.978 E48.76371
G1 X96.809 Y103.022 E49.54418
G1 X97.696 Y103.022 E49.62523
G1 X91.653 Y96.978 E50.40570
G1 X92.541 Y96.978 E50.48675
G1 X98.584 Y103.022 E51.26722
G1 X99.472 Y103.022 E51.34827
G1 X93.428 Y96.978 E52.12873
G1 X94.316 Y96.978 E52.20978
G1 X100.359 Y103.022 E52.99025
G1 X101.247 Y103.022 E53.07130
G1 X95.203 Y96.978 E53.85177
G1 X96.091 Y96.978 E53.93282
G1 X102.134 Y103.022 E54.71329
G1 X103.022 Y103.022 E54.79434
G1 X96.978 Y96.978 E55.57481
G1 X97.866 Y96.978 E55.65585
G1 X103.909 Y103.022 E56.43632
G1 X104.797 Y103.022 E56.51737
G1 X98.753 Y96.978 E57.29784
G1 X99.641 Y96.978 E57.37889
G1 X105.684 Y103.022 E58.15936
G1 X106.572 Y103.022 E58.24041
G1 X100.528 Y96.978 E59.02088
G1 X101.416 Y96.978 E59.10192
G1 X107.459 Y103.022 E59.88239
G1 X108.347 Y103.022 E59.96344
G1 X102.303 Y96.978 E60.74391
G1 X103.191 Y96.978 E60.82496
G1 X109.234 Y103.022 E61.60543
G1 X110.122 Y103.022 E61.68648
G1 X104.079 Y96.978 E62.46695
G1 X104.966 Y96.978 E62.54800
G1 X111.009 Y103.022 E63.32846
G1 X111.897 Y103.022 E63.40951
G1 X105.854 Y96.978 E64.18998
G1 X106.741 Y96.978 E64.27103
G1 X112.784 Y103.022 E65.05150
G1 X113.672 Y103.022 E65.13255
G1 X107.629 Y96.978 E65.91302
G1 X108.516 Y96.978 E65.99407
G1 X114.559 Y103.022 E66.77453
G1 X115.447 Y103.022 E66.85558
G1 X109.404 Y96.978 E67.63605
G1 X110.291 Y96.978 E67.71710
G1 X116.334 Y103.022 E68.49757
G1 X117.222 Y103.022 E68.57862
G1 X111.179 Y96.978 E69.35909
G1 X112.066 Y96.978 E69.44014
G1 X118.110 Y103.022 E70.22060
G1 X118.997 Y103.022 E70.30165
G1 X112.954 Y96.978 E71.08212
G1 X113.841 Y96.978 E71.16317
G1 X119.885 Y103.022 E71.94364
G1 X120.772 Y103.022 E72.02469
G1 X114.729 Y96.978 E72.80516
G1 X115.616 Y96.978 E72.88621
G1 X121.660 Y103.022 E73.66667
G1 X122.547 Y103.022 E73.74772
G1 X116.504 Y96.978 E74.52819
G1 X117.391 Y96.978 E74.60924
G1 X123.022 Y102.609 E75.33637
G1 X123.022 Y101.721 E75.41742
G1 X118.279 Y96.978 E76.02992
G1 X119.166 Y96.978 E76.11097
G1 X123.022 Y100.834 E76.60886
G1 X123.022 Y99.946 E76.68991
G1 X120.054 Y96.978 E77.07317
G1 X120.941 Y96.978 E77.15422
G1 X123.022 Y99.059 E77.42287
G1 X123.022 Y98.171 E77.50392
G1 X121.829 Y96.978 E77.65794
G1 X122.717 Y96.978 E77.73899
G1 X123.022 Y97.283 E77.77840
G1 Z0.750 F7800.000
G1 X75.778 Y95.778 F7800.000
G1 X124.222 Y95.778 E80.14819 F3600.000
G1 X124.222 Y104.222 E80.56123
G1 X75.778 Y104.222 E82.93103
G1 X75.778 Y95.838 E83.34113
G1 X75.484 Y95.484 F7800.000
G1 X124.516 Y95.484 E85.73971 F3600.000
G1 X124.516 Y104.516 E86.18153
G1 X75.484 Y104.516 E88.58010
G1 X75.484 Y95.544 E89.01899
G1 X75.190 Y95.190 F7800.000
G1 X124.810 Y95.190 E91.44634 F1800.000
G1 X124.810 Y104.810 E91.91694
G1 X75.190 Y104.810 E94.34430
G1 X75.190 Y95.250 E94.81196
G1 X75.536 Y95.390 F7800.000
G1 X76.111 Y95.946 F7800.000
G1 X75.946 Y96.111 E94.82339 F1200.000
G1 X75.946 Y96.528 E94.84384
G1 X76.528 Y95.946 E94.88420
G1 X76.945 Y95.946 E94.90465
G1 X75.946 Y96.945 E94.97393
G1 X75.946 Y97.362 E94.99439
G1 X77.362 Y95.946 E95.09259
G1 X77.779 Y95.946 E95.11305
G1 X75.946 Y97.779 E95.24018
G1 X75.946 Y98.196 E95.26064
G1 X78.196 Y95.946 E95.41670
G1 X78.613 Y95.946 E95.43715
G1 X75.946 Y98.613 E95.62214
G1 X75.946 Y99.030 E95.64259
G1 X79.030 Y95.946 E95.85651
G1 X79.447 Y95.946 E95.87696
G1 X75.946 Y99.447 E96.11981
G1 X75.946 Y99.864 E96.14026
G1 X79.864 Y95.946 E96.41203
G1 X80.281 Y95.946 E96.43248
G1 X75.946 Y100.281 E96.73318
G1 X75.946 Y100.698 E96.75363
G1 X80.698 Y95.946 E97.08326
G1 X81.115 Y95.946 E97.10371
G1 X75.946 Y101.115 E97.46226
G1 X75.946 Y101.533 E97.48271
G1 X81.533 Y95.946 E97.87019
G1 X81.950 Y95.946 E97.89064
G1 X75.946 Y101.950 E98.30705
G1 X75.946 Y102.367 E98.32750
G1 X82.367 Y95.946 E98.77283
G1 X82.784 Y95.946 E98.79329
G1 X75.946 Y102.784 E99.26754
G1 X75.946 Y103.201 E99.28800
G1 X83.201 Y95.946 E99.79118
G1 X83.618 Y95.946 E99.81163
G1 X75.946 Y103.618 E100.34375
G1 X75.956 Y104.024 E100.36369
G1 X84.035 Y95.946 E100.92401
G1 X84.452 Y95.946 E100.94446
G1 X76.344 Y104.054 E101.50683
G1 X76.761 Y104.054 E101.52728
G1 X84.869 Y95.946 E102.08965
G1 X85.286 Y95.946 E102.11010
G1 X77.178 Y104.054 E102.67247
G1 X77.595 Y104.054 E102.69292
G1 X85.703 Y95.946 E103.25529
G1 X86.120 Y95.946 E103.27574
G1 X78.012 Y104.054 E103.83811
G1 X78.429 Y104.054 E103.85856
G1 X86.537 Y95.946 E104.42093
G1 X86.954 Y95.946 E104.44138
G1 X78.846 Y104.054 E105.00375
G1 X79.263 Y104.054 E105.02420
G1 X87.371 Y95.946 E105.58657
G1 X87.789 Y95.946 E105.60702
G1 X79.680 Y104.054 E106.16939
G1 X80.097 Y104.054 E106.18984
G1 X88.206 Y95.946 E106.75221
G1 X88.623 Y95.946 E106.77266
G1 X80.514 Y104.054 E107.33503
G1 X80.932 Y104.054 E107.35548
G1 X89.040 Y95.946 E107.91785
G1 X89.457 Y95.946 E107.93830
G1 X81.349 Y104.054 E108.50067
G1 X81.766 Y104.054 E108.52112
G1 X89.874 Y95.946 E109.08349
G1 X90.291 Y95.946 E109.10394
G1 X82.183 Y104.054 E109.66631
G1 X82.600 Y104.054 E109.68676
G1 X90.708 Y95.946 E110.24913
G1 X91.125 Y95.946 E110.26958
G1 X83.017 Y104.054 E110.83195
G1 X83.434 Y104.054 E110.85240
G1 X91.542 Y95.946 E111.41477
G1 X91.959 Y95.946 E111.43522
G1 X83.851 Y104.054 E111.99759
G1 X84.268 Y104.054 E112.01804
G1 X92.376 Y95.946 E112.58041
G1 X92.793 Y95.946 E112.60086
G1 X84.685 Y104.054 E113.16323
G1 X85.102 Y104.054 E113.18368
G1 X93.210 Y95.946 E113.74605
G1 X93.627 Y95.946 E113.76650
G1 X85.519 Y104.054 E114.32887
G1 X85.936 Y104.054 E114.34932
G1 X94.044 Y95.946 E114.91169
G1 X94.462 Y95.946 E114.93214
G1 X86.353 Y104.054 E115.49451
G1 X86.770 Y104.054 E115.51496
G1 X94.879 Y95.946 E116.07733
G1 X95.296 Y95.946 E116.09778
G1 X87.188 Y104.054 E116.66015
G1 X87.605 Y104.054 E116.68060
G1 X95.713 Y95.946 E117.24297
G1 X96.130 Y95.946 E117.26342
G1 X88.022 Y104.054 E117.82579
G1 X88.439 Y104.054 E117.84624
G1 X96.547 Y95.946 E118.40861
G1 X96.964 Y95.946 E118.42906
G1 X88.856 Y104.054 E118.99143
G1 X89.273 Y104.054 E119.01188
G1 X97.381 Y95.946 E119.57425
G1 X97.798 Y95.946 E119.59471
G1 X89.690 Y104.054 E120.15707
G1 X90.107 Y104.054 E120.17753
G1 X98.215 Y95.946 E120.73989
G1 X98.632 Y95.946 E120.76035
G1 X90.524 Y104.054 E121.32271
G1 X90.941 Y104.054 E121.34317
G1 X99.049 Y95.946 E121.90553
G1 X99.466 Y95.946 E121.92599
G1 X91.358 Y104.054 E122.48835
G1 X91.775 Y104.054 E122.50881
G1 X99.883 Y95.946 E123.07117
G1 X100.300 Y95.946 E123.09163
G1 X92.192 Y104.054 E123.65399
G1 X92.609 Y104.054 E123.67445
G1 X100.718 Y95.946 E124.23681
G1 X101.135 Y95.946 E124.25727
G1 X93.026 Y104.054 E124.81963
G1 X93.444 Y104.054 E124.84009
G1 X101.552 Y95.946 E125.40245
G1 X101.969 Y95.946 E125.42291
G1 X93.861 Y104.054 E125.98527
G1 X94.278 Y104.054 E126.00573
G1 X102.386 Y95.946 E126.56809
G1 X102.803 Y95.946 E126.58855
G1 X94.695 Y104.054 E127.15091
G1 X95.112 Y104.054 E127.17137
G1 X103.220 Y95.946 E127.73373
G1 X103.637 Y95.946 E127.75419
G1 X95.529 Y104.054 E128.31655
G1 X95.946 Y104.054 E128.33701
G1 X104.054 Y95.946 E128.89937
G1 X104.471 Y95.946 E128.91983
G1 X96.363 Y104.054 E129.48219
G1 X96.780 Y104.054 E129.50265
G1 X104.888 Y95.946 E130.06501
G1 X105.305 Y95.946 E130.08547
G1 X97.197 Y104.054 E130.64783
G1 X97.614 Y104.054 E130.66829
G1 X105.722 Y95.946 E131.23065
G1 X106.139 Y95.946 E131.25111
G1 X98.031 Y104.054 E131.81347
G1 X98.448 Y104.054 E131.83393
G1 X106.556 Y95.946 E132.39629
G1 X106.973 Y95.946 E132.41675
G1 X98.865 Y104.054 E132.97911
G1 X99.282 Y104.054 E132.99957
G1 X107.391 Y95.946 E133.56193
G1 X107.808 Y95.946 E133.58239
G1 X99.699 Y104.054 E134.14475
G1 X100.117 Y104.054 E134.16521
G1 X108.225 Y95.946 E134.72757
G1 X108.642 Y95.946 E134.74803
G1 X100.534 Y104.054 E135.31039
G1 X100.951 Y104.054 E135.33085
G1 X109.059 Y95.946 E135.89321
G1 X109.476 Y95.946 E135.91367
G1 X101.368 Y104.054 E136.47603
G1 X101.785 Y104.054 E136.49649
G1 X109.893 Y95.946 E137.05885
G1 X110.310 Y95.946 E137.07931
G1 X102.202 Y104.054 E137.64168
G1 X102.619 Y104.054 E137.66213
G1 X110.727 Y95.946 E138.22450
G1 X111.144 Y95.946 E138.24495
G1 X103.036 Y104.054 E138.80732
G1 X103.453 Y104.054 E138.82777
G1 X111.561 Y95.946 E139.39014
G1 X111.978 Y95.946 E139.41059
G1 X103.870 Y104.054 E139.97296
G1 X104.287 Y104.054 E139.99341
G1 X112.395 Y95.946 E140.55578
G1 X112.812 Y95.946 E140.57623
G1 X104.704 Y104.054 E141.13860
G1 X105.121 Y104.054 E141.15905
G1 X113.229 Y95.946 E141.72142
G1 X113.647 Y95.946 E141.74187
G1 X105.538 Y104.054 E142.30424
G1 X105.955 Y104.054 E142.32469
G1 X114.064 Y95.946 E142.88706
G1 X114.481 Y95.946 E142.90751
G1 X106.373 Y104.054 E143.46988
G1 X106.790 Y104.054 E143.49033
G1 X114.898 Y95.946 E144.05270
G1 X115.315 Y95.946 E144.07315
G1 X107.207 Y104.054 E144.63552
G1 X107.624 Y104.054 E144.65597
G1 X115.732 Y95.946 E145.21834
G1 X116.149 Y95.946 E145.23879
G1 X108.041 Y104.054 E145.80116
G1 X108.458 Y104.054 E145.82161
G1 X116.566 Y95.946 E146.38398
G1 X116.983 Y95.946 E146.40443
G1 X108.875 Y104.054 E146.96680
G1 X109.292 Y104.054 E146.98725
G1 X117.400 Y95.946 E147.54962
G1 X117.817 Y95.946 E147.57007
G1 X109.709 Y104.054 E148.13244
G1 X110.126 Y104.054 E148.15289
G1 X118.234 Y95.946 E148.71526
G1 X118.651 Y95.946 E148.73571
G1 X110.543 Y104.054 E149.29808
G1 X110.960 Y104.054 E149.31853
G1 X119.068 Y95.946 E149.88090
G1 X119.485 Y95.946 E149.90135
G1 X111.377 Y104.054 E150.46372
G1 X111.794 Y104.054 E150.48417
G1 X119.903 Y95.946 E151.04654
G1 X120.320 Y95.946 E151.06699
G1 X112.211 Y104.054 E151.62936
G1 X112.629 Y104.054 E151.64981
G1 X120.737 Y95.946 E152.21218
G1 X121.154 Y95.946 E152.23263
G1 X113.046 Y104.054 E152.79500
G1 X113.463 Y104.054 E152.81545
G1 X121.571 Y95.946 E153.37782
G1 X121.988 Y95.946 E153.39827
G1 X113.880 Y104.054 E153.96064
G1 X114.297 Y104.054 E153.98109
G1 X122.405 Y95.946 E154.54346
G1 X122.822 Y95.946 E154.56391
G1 X114.714 Y104.054 E155.12628
G1 X115.131 Y104.054 E155.14673
G1 X123.239 Y95.946 E155.70910
G1 X123.656 Y95.946 E155.72955
G1 X115.548 Y104.054 E156.29192
G1 X115.965 Y104.054 E156.31237
G1 X124.044 Y95.975 E156.87269
G1 X124.054 Y96.382 E156.89264
G1 X116.382 Y104.054 E157.42475
G1 X116.799 Y104.054 E157.44521
G1 X124.054 Y96.799 E157.94839
G1 X124.054 Y97.216 E157.96885
G1 X117.216 Y104.054 E158.44311
G1 X117.633 Y104.054 E158.46356
G1 X124.054 Y97.633 E158.90890
G1 X124.054 Y98.050 E158.92935
G1 X118.050 Y104.054 E159.34576
G1 X118.467 Y104.054 E159.36621
G1 X124.054 Y98.467 E159.75369
G1 X124.054 Y98.884 E159.77415
G1 X118.884 Y104.054 E160.13270
G1 X119.302 Y104.054 E160.15315
G1 X124.054 Y99.302 E160.48278
G1 X124.054 Y99.719 E160.50323
G1 X119.719 Y104.054 E160.80393
G1 X120.136 Y104.054 E160.82439
G1 X124.054 Y100.136 E161.09616
G1 X124.054 Y100.553 E161.11661
G1 X120.553 Y104.054 E161.35946
G1 X120.970 Y104.054 E161.37991
G1 X124.054 Y100.970 E161.59383
G1 X124.054 Y101.387 E161.61429
G1 X121.387 Y104.054 E161.79928
G1 X121.804 Y104.054 E161.81973
G1 X124.054 Y101.804 E161.97580
G1 X124.054 Y102.221 E161.99625
G1 X122.221 Y104.054 E162.12339
G1 X122.638 Y104.054 E162.14384
G1 X124.054 Y102.638 E162.24206
G1 X124.054 Y103.055 E162.26251
G1 X123.055 Y104.054 E162.33179
G1 X123.472 Y104.054 E162.35225
G1 X124.054 Y103.472 E162.39261
G1 X124.054 Y103.889 E162.41306
G1 X123.889 Y104.054 E162.42449
G1 Z1.150 F7800.000
G1 X75.778 Y95.778 F7800.000
G1 X124.222 Y95.778 E164.79429 F3600.000
G1 X124.222 Y104.222 E165.20733
G1 X75.778 Y104.222 E167.57712
G1 X75.778 Y95.838 E167.98723
G1 X75.484 Y95.484 F7800.000
G1 X124.516 Y95.484 E170.38580 F3600.000
G1 X124.516 Y104.516 E170.82762
G1 X75.484 Y104.516 E173.22620
G1 X75.484 Y95.544 E173.66508
G1 X75.190 Y95.190 F7800.000
G1 X124.810 Y95.190 E176.09243 F1800.000
G1 X124.810 Y104.810 E176.56303
G1 X75.190 Y104.810 E178.99039
G1 X75.190 Y95.250 E179.45805
G1 X75.536 Y95.390 F7800.000
G1 X75.946 Y103.889 F7800.000
G1 X76.111 Y104.054 E179.46948 F1200.000
G1 X76.528 Y104.054 E179.48994
G1 X75.946 Y103.472 E179.53029
G1 X75.946 Y103.055 E179.55074
G1 X76.945 Y104.054 E179.62002
G1 X77.362 Y104.054 E179.64048
G1 X75.946 Y102.638 E179.73869
G1 X75.946 Y102.221 E179.75914
G1 X77.779 Y104.054 E179.88627
G1 X78.196 Y104.054 E179.90673
G1 X75.946 Y101.804 E180.06279
G1 X75.946 Y101.387 E180.08324
G1 X78.613 Y104.054 E180.26823
G1 X79.030 Y104.054 E180.28869
G1 X75.946 Y100.970 E180.50260
G1 X75.946 Y100.553 E180.52306
G1 X79.447 Y104.054 E180.76590
G1 X79.864 Y104.054 E180.78635
G1 X75.946 Y100.136 E181.05812
G1 X75.946 Y99.719 E181.07858
G1 X80.281 Y104.054 E181.37927
G1 X80.698 Y104.054 E181.39973
G1 X75.946 Y99.302 E181.72935
G1 X75.946 Y98.885 E181.74980
G1 X81.115 Y104.054 E182.10835
G1 X81.533 Y104.054 E182.12881
G1 X75.946 Y98.467 E182.51628
G1 X75.946 Y98.050 E182.53674
G1 X81.950 Y104.054 E182.95314
G1 X82.367 Y104.054 E182.97359
G1 X75.946 Y97.633 E183.41892
G1 X75.946 Y97.216 E183.43938
G1 X82.784 Y104.054 E183.91364
G1 X83.201 Y104.054 E183.93409
G1 X75.946 Y96.799 E184.43727
G1 X75.946 Y96.382 E184.45773
G1 X83.618 Y104.054 E184.98984
G1 X84.035 Y104.054 E185.01029
G1 X75.956 Y95.976 E185.57061
G1 X76.344 Y95.946 E185.58967
G1 X84.452 Y104.054 E186.15203
G1 X84.869 Y104.054 E186.17249
G1 X76.761 Y95.946 E186.73485
G1 X77.178 Y95.946 E186.75531
G1 X85.286 Y104.054 E187.31767
G1 X85.703 Y104.054 E187.33813
G1 X77.595 Y95.946 E187.90049
G1 X78.012 Y95.946 E187.92095
G1 X86.120 Y104.054 E188.48331
G1 X86.537 Y104.054 E188.50377
G1 X78.429 Y95.946 E189.06613
G1 X78.846 Y95.946 E189.08659
G1 X86.954 Y104.054 E189.64895
G1 X87.371 Y104.054 E189.66941
G1 X79.263 Y95.946 E190.23177
G1 X79.680 Y95.946 E190.25223
G1 X87.789 Y104.054 E190.81459
G1 X88.206 Y104.054 E190.83505
G1 X80.097 Y95.946 E191.39741
G1 X80.514 Y95.946 E191.41787
G1 X88.623 Y104.054 E191.98023
G1 X89.040 Y104.054 E192.00069
G1 X80.932 Y95.946 E192.56305
