; generated by Slic3r 1.2.9 on 2016-12-24 at 01:20:45

; external perimeters extrusion width = 0.38mm
; perimeters extrusion width = 0.38mm
; infill extrusion width = 0.38mm
; solid infill extrusion width = 0.38mm
; top infill extrusion width = 0.38mm

M107
M104 S200 ; set temperature
G28 ; home all axes
G1 Z5 F5000 ; lift nozzle

M109 S200 ; wait for temperature to be reached
G21 ; set units to millimeters
G90 ; use absolute coordinates
M82 ; use absolute distances for extrusion
G92 E0
G1 Z0.350 F7800.000
G1 E-2.00000 F2400.00000
G92 E0
G1 X98.423 Y91.894 F7800.000
G1 E2.00000 F2400.00000
G1 X98.677 Y92.152 E2.03292 F1800.000
G1 X96.594 Y94.392 E2.31112
G1 X95.487 Y95.694 E2.46648
G1 X94.981 Y96.345 E2.54146
G1 X94.522 Y96.985 E2.61310
G1 X94.109 Y97.618 E2.68185
G1 X93.746 Y98.245 E2.74770
G1 X93.435 Y98.864 E2.81072
G1 X93.178 Y99.477 E2.87110
G1 X92.975 Y100.082 E2.92917
G1 X92.826 Y100.682 E2.98536
G1 X92.731 Y101.278 E3.04024
G1 X92.690 Y101.873 E3.09446
G1 X92.703 Y102.469 E3.14870
G1 X92.769 Y103.070 E3.20363
G1 X92.889 Y103.676 E3.25982
G1 X93.063 Y104.289 E3.31777
G1 X93.289 Y104.909 E3.37783
G1 X93.567 Y105.537 E3.44022
G1 X93.893 Y106.171 E3.50505
G1 X94.264 Y106.811 E3.57230
G1 X94.679 Y107.462 E3.64254
G1 X95.382 Y108.448 E3.75261
G1 X95.103 Y108.669 E3.78498
G1 X94.315 Y107.725 E3.89679
G1 X93.846 Y107.098 E3.96803
G1 X93.417 Y106.465 E4.03752
G1 X93.033 Y105.827 E4.10524
G1 X92.698 Y105.183 E4.17125
G1 X92.417 Y104.532 E4.23571
G1 X92.193 Y103.875 E4.29884
G1 X92.030 Y103.211 E4.36096
G1 X91.931 Y102.543 E4.42243
G1 X91.898 Y101.870 E4.48365
G1 X91.931 Y101.196 E4.54503
G1 X92.032 Y100.522 E4.60698
G1 X92.198 Y99.851 E4.66990
G1 X92.429 Y99.182 E4.73417
G1 X92.721 Y98.519 E4.80010
G1 X93.072 Y97.860 E4.86796
G1 X93.478 Y97.207 E4.93793
G1 X93.936 Y96.558 E5.01013
G1 X94.441 Y95.914 E5.08456
G1 X94.989 Y95.274 E5.16117
G1 X95.574 Y94.637 E5.23982
G1 X96.189 Y94.006 E5.31991
G1 X97.504 Y92.742 E5.48577
G1 X98.379 Y91.935 E5.59400
G1 E3.59400 F2400.00000
G92 E0
G1 X101.923 Y80.530 F7800.000
G1 E2.00000 F2400.00000
G1 X102.278 Y80.785 E2.03972 F1800.000
G1 X103.041 Y81.478 E2.13342
G1 X103.620 Y82.182 E2.21636
G1 X104.028 Y82.902 E2.29162
G1 X104.273 Y83.638 E2.36211
G1 X104.363 Y84.382 E2.43028
G1 X104.313 Y85.126 E2.49806
G1 X104.141 Y85.862 E2.56685
G1 X103.864 Y86.589 E2.63759
G1 X103.499 Y87.307 E2.71083
G1 X103.060 Y88.017 E2.78670
G1 X102.561 Y88.720 E2.86511
G1 X102.014 Y89.416 E2.94554
G1 X100.813 Y90.797 E3.11198
G1 X98.271 Y93.494 E3.44903
G1 X97.062 Y94.807 E3.61125
G1 X95.972 Y96.088 E3.76424
G1 X95.482 Y96.719 E3.83686
G1 X95.038 Y97.338 E3.90614
G1 X94.642 Y97.946 E3.97213
G1 X94.296 Y98.542 E4.03479
G1 X94.003 Y99.126 E4.09420
G1 X93.763 Y99.697 E4.15057
G1 X93.575 Y100.257 E4.20423
G1 X93.439 Y100.806 E4.25569
G1 X93.353 Y101.349 E4.30562
G1 X93.316 Y101.888 E4.35476
G1 X93.327 Y102.428 E4.40391
G1 X93.387 Y102.974 E4.45388
G1 X93.497 Y103.530 E4.50536
G1 X93.658 Y104.096 E4.55893
G1 X93.869 Y104.676 E4.61500
G1 X94.131 Y105.268 E4.67383
G1 X94.441 Y105.871 E4.73556
G1 X94.797 Y106.486 E4.80015
G1 X95.198 Y107.112 E4.86773
G1 X96.101 Y108.381 E5.00941
G1 X97.113 Y109.678 E5.15894
G1 X98.702 Y111.657 E5.38976
G1 X99.714 Y112.996 E5.54237
G1 X100.175 Y113.667 E5.61635
G1 X100.593 Y114.343 E5.68862
G1 X100.957 Y115.022 E5.75874
G1 X101.254 Y115.707 E5.82659
G1 X101.470 Y116.397 E5.89236
G1 X101.590 Y117.093 E5.95659
G1 X101.597 Y117.794 E6.02026
G1 X101.474 Y118.493 E6.08483
G1 X101.209 Y119.185 E6.15222
G1 X100.694 Y120.025 E6.24179
G1 X109.650 Y120.025 E7.05612
G1 X109.650 Y120.625 E7.11067
G1 X90.350 Y120.625 E8.86561
G1 X90.350 Y120.025 E8.92017
G1 X99.864 Y120.025 E9.78532
G1 X100.305 Y119.510 E9.84696
G1 X100.652 Y118.916 E9.90955
G1 X100.850 Y118.331 E9.96563
G1 X100.918 Y117.755 E10.01839
G1 X100.872 Y117.182 E10.07070
G1 X100.726 Y116.606 E10.12467
G1 X100.490 Y116.027 E10.18157
G1 X100.175 Y115.442 E10.24198
G1 X99.790 Y114.853 E10.30598
G1 X99.347 Y114.259 E10.37331
G1 X98.856 Y113.662 E10.44359
G1 X98.327 Y113.061 E10.51647
G1 X95.450 Y110.007 E10.89794
G1 X94.338 Y108.747 E11.05075
G1 X93.822 Y108.109 E11.12539
G1 X93.337 Y107.460 E11.19902
G1 X92.890 Y106.802 E11.27136
G1 X92.487 Y106.133 E11.34240
G1 X92.133 Y105.451 E11.41223
G1 X91.833 Y104.757 E11.48099
G1 X91.593 Y104.050 E11.54887
G1 X91.417 Y103.332 E11.61613
G1 X91.309 Y102.604 E11.68303
G1 X91.272 Y101.870 E11.74984
G1 X91.309 Y101.134 E11.81684
G1 X91.418 Y100.401 E11.88429
G1 X91.598 Y99.673 E11.95245
G1 X91.847 Y98.954 E12.02161
G1 X92.159 Y98.246 E12.09201
G1 X92.530 Y97.548 E12.16388
G1 X92.957 Y96.861 E12.23740
G1 X93.434 Y96.185 E12.31268
G1 X93.957 Y95.518 E12.38977
G1 X94.521 Y94.859 E12.46862
G1 X95.121 Y94.207 E12.54912
G1 X95.749 Y93.563 E12.63095
G1 X97.075 Y92.287 E12.79831
G1 X99.787 Y89.786 E13.13373
G1 X101.039 Y88.557 E13.29327
G1 X101.609 Y87.945 E13.36935
G1 X102.124 Y87.337 E13.44177
G1 X102.576 Y86.735 E13.51025
G1 X102.953 Y86.137 E13.57448
G1 X103.245 Y85.546 E13.63444
G1 X103.443 Y84.960 E13.69065
G1 X103.538 Y84.377 E13.74441
G1 X103.517 Y83.787 E13.79803
G1 X103.364 Y83.184 E13.85466
G1 X103.055 Y82.561 E13.91783
G1 X102.570 Y81.921 E13.99092
G1 X101.887 Y81.267 E14.07688
G1 X100.989 Y80.605 E14.17830
G1 X99.919 Y79.975 E14.29119
G1 X90.350 Y79.975 E15.16133
G1 X90.350 Y79.375 E15.21589
G1 X109.650 Y79.375 E16.97083
G1 X109.650 Y79.975 E17.02539
G1 X102.101 Y79.975 E17.71180
G1 X101.941 Y80.473 E17.75938
G1 X101.725 Y80.878 F7800.000
G1 X100.993 Y79.945 F7800.000
G1 X100.104 Y79.703 E17.84321 F1800.000
G1 X103.153 Y82.139 F7800.000
G1 X103.343 Y82.380 E17.87115 F1800.000
G1 X103.700 Y83.054 E17.94049
G1 X103.897 Y83.725 E18.00411
G1 X103.950 Y84.393 E18.06503
G1 X103.870 Y85.078 E18.12767
G1 X103.686 Y85.723 E18.18871
G1 X103.359 Y86.473 E18.26313
G1 X103.350 Y86.468 F7800.000
G1 X103.025 Y87.041 E18.39012 F1800.000
G1 X102.578 Y87.697 E18.54323
G1 X102.069 Y88.353 E18.70316
G1 X101.513 Y89.002 E18.86783
G1 X100.279 Y90.313 E19.21507
G1 X98.772 Y91.803 E19.62359
G1 X95.043 Y95.722 F7800.000
G1 X94.705 Y96.137 E19.67237 F1800.000
G1 X94.223 Y96.779 E19.74532
G1 X93.792 Y97.415 E19.81514
G1 X93.404 Y98.063 E19.88384
G1 X93.078 Y98.692 E19.94829
G1 X92.803 Y99.329 E20.01137
G1 X92.587 Y99.966 E20.07248
G1 X92.429 Y100.601 E20.13200
G1 X92.331 Y101.236 E20.19040
G1 X92.294 Y101.860 E20.24724
G1 X92.317 Y102.505 E20.30591
G1 X92.400 Y103.139 E20.36408
G1 X92.538 Y103.762 E20.42213
G1 X92.735 Y104.396 E20.48251
G1 X92.894 Y104.798 E20.52179
G1 X95.436 Y108.804 F7800.000
G1 X96.010 Y109.497 E20.69527 F1800.000
G1 X98.748 Y112.671 E21.50344
G1 X99.273 Y113.314 E21.66349
G1 X99.691 Y113.869 E21.79740
G1 X99.694 Y113.866 F7800.000
G1 X100.181 Y114.580 E21.87596 F1800.000
G1 X100.554 Y115.210 E21.94254
G1 X100.866 Y115.851 E22.00737
G1 X101.094 Y116.488 E22.06886
G1 X101.230 Y117.126 E22.12817
G1 X101.258 Y117.759 E22.18578
G1 X101.227 Y117.973 E22.20545
G1 Z0.750 F7800.000
G1 E20.20545 F2400.00000
G92 E0
G1 X103.426 Y86.505 F7800.000
G1 E2.00000 F2400.00000
G1 X103.125 Y87.097 E2.03250 F3600.000
G1 X102.703 Y87.781 E2.07178
G1 X102.218 Y88.464 E2.11278
G1 X101.684 Y89.143 E2.15502
G1 X100.496 Y90.510 E2.24362
G1 X97.957 Y93.202 E2.42465
G1 X96.742 Y94.523 E2.51245
G1 X95.639 Y95.818 E2.59563
G1 X95.139 Y96.462 E2.63557
G1 X94.684 Y97.096 E2.67371
G1 X94.277 Y97.721 E2.71024
G1 X93.919 Y98.339 E2.74512
G1 X93.614 Y98.947 E2.77841
G1 X93.362 Y99.546 E2.81022
G1 X93.164 Y100.137 E2.84071
G1 X93.019 Y100.721 E2.87014
G1 X92.927 Y101.300 E2.89883
G1 X92.887 Y101.877 E2.92714
G1 X92.899 Y102.456 E2.95546
G1 X92.964 Y103.040 E2.98417
G1 X93.081 Y103.630 E3.01360
G1 X93.250 Y104.228 E3.04404
G1 X93.472 Y104.836 E3.07567
G1 X93.744 Y105.452 E3.10864
G1 X94.065 Y106.077 E3.14299
G1 X94.432 Y106.709 E3.17872
G1 X94.842 Y107.352 E3.21606
G1 X95.758 Y108.637 E3.29326
G1 X96.777 Y109.944 E3.37431
G1 X98.364 Y111.920 E3.49834
G1 X99.367 Y113.246 E3.57965
G1 X99.767 Y113.829 E3.61421
G1 X99.632 Y113.931 E3.62248
G1 X99.183 Y113.385 E3.65706
G1 X98.643 Y112.772 E3.69698
G1 X95.767 Y109.719 E3.90221
G1 X94.665 Y108.470 E3.98363
G1 X94.160 Y107.846 E4.02294
G1 X93.686 Y107.212 E4.06167
G1 X93.251 Y106.571 E4.09954
G1 X92.861 Y105.923 E4.13653
G1 X92.520 Y105.267 E4.17269
G1 X92.233 Y104.603 E4.20810
G1 X92.004 Y103.930 E4.24286
G1 X91.837 Y103.249 E4.27715
G1 X91.735 Y102.562 E4.31115
G1 X91.701 Y101.870 E4.34503
G1 X91.735 Y101.177 E4.37900
G1 X91.839 Y100.484 E4.41326
G1 X92.010 Y99.795 E4.44799
G1 X92.246 Y99.111 E4.48340
G1 X92.544 Y98.433 E4.51962
G1 X92.902 Y97.762 E4.55681
G1 X93.314 Y97.098 E4.59505
G1 X93.778 Y96.441 E4.63442
G1 X94.289 Y95.789 E4.67491
G1 X94.842 Y95.143 E4.71650
G1 X95.432 Y94.502 E4.75913
G1 X96.051 Y93.867 E4.80251
G1 X97.369 Y92.599 E4.89200
G1 X100.082 Y90.097 E5.07255
G1 X101.346 Y88.856 E5.15919
G1 X101.929 Y88.229 E5.20107
G1 X102.459 Y87.605 E5.24115
G1 X102.929 Y86.978 E5.27946
G1 X103.279 Y86.422 E5.31160
G1 X103.374 Y86.476 E5.31691
G1 E3.31691 F2400.00000
G92 E0
G1 X101.499 Y80.449 F7800.000
G1 E2.00000 F2400.00000
G1 X101.226 Y80.247 E2.01663 F900.000
G1 X100.693 Y79.933 E2.04688
G1 X100.728 Y79.803 E2.05348
G1 X101.706 Y79.803 E2.10133
G1 X101.518 Y80.392 E2.13156
G1 X101.765 Y80.583 F7800.000
G1 X102.194 Y80.889 E2.15734 F3600.000
G1 X102.943 Y81.571 E2.20689
G1 X103.509 Y82.258 E2.25046
G1 X103.905 Y82.957 E2.28974
G1 X104.141 Y83.667 E2.32637
G1 X104.229 Y84.386 E2.36177
G1 X104.180 Y85.106 E2.39707
G1 X104.012 Y85.823 E2.43310
G1 X103.741 Y86.535 E2.47037
G1 X103.382 Y87.242 E2.50915
G1 X102.948 Y87.943 E2.54949
G1 X102.454 Y88.640 E2.59130
G1 X101.911 Y89.330 E2.63425
G1 X100.714 Y90.707 E2.72350
G1 X98.172 Y93.403 E2.90473
G1 X96.962 Y94.718 E2.99217
G1 X95.868 Y96.003 E3.07475
G1 X95.374 Y96.638 E3.11409
G1 X94.927 Y97.262 E3.15164
G1 X94.527 Y97.875 E3.18746
G1 X94.178 Y98.478 E3.22154
G1 X93.881 Y99.070 E3.25391
G1 X93.637 Y99.650 E3.28470
G1 X93.446 Y100.219 E3.31408
G1 X93.307 Y100.780 E3.34231
G1 X93.219 Y101.333 E3.36975
G1 X93.181 Y101.884 E3.39677
G1 X93.193 Y102.437 E3.42380
G1 X93.255 Y102.995 E3.45126
G1 X93.367 Y103.561 E3.47949
G1 X93.530 Y104.138 E3.50882
G1 X93.745 Y104.726 E3.53944
G1 X94.010 Y105.325 E3.57151
G1 X94.323 Y105.936 E3.60507
G1 X94.683 Y106.556 E3.64013
G1 X95.086 Y107.187 E3.67679
G1 X95.994 Y108.461 E3.75332
G1 X97.007 Y109.761 E3.83396
G1 X98.597 Y111.740 E3.95809
G1 X99.606 Y113.074 E4.03994
G1 X100.062 Y113.740 E4.07944
G1 X100.477 Y114.410 E4.11796
G1 X100.836 Y115.081 E4.15520
G1 X101.128 Y115.754 E4.19109
G1 X101.339 Y116.429 E4.22569
G1 X101.456 Y117.105 E4.25928
G1 X101.462 Y117.783 E4.29240
G1 X101.344 Y118.457 E4.32590
G1 X101.088 Y119.126 E4.36092
G1 X100.455 Y120.159 E4.42022
G1 X109.516 Y120.159 E4.86348
G1 X109.516 Y120.491 E4.87970
G1 X90.484 Y120.491 E5.81071
G1 X90.484 Y120.159 E5.82694
G1 X99.926 Y120.159 E6.28883
G1 X100.415 Y119.588 E6.32561
G1 X100.775 Y118.971 E6.36053
G1 X100.982 Y118.361 E6.39206
G1 X101.053 Y117.758 E6.42178
G1 X101.005 Y117.160 E6.45112
G1 X100.854 Y116.564 E6.48117
G1 X100.612 Y115.969 E6.51259
G1 X100.290 Y115.373 E6.54572
G1 X99.900 Y114.776 E6.58063
G1 X99.453 Y114.176 E6.61722
G1 X98.959 Y113.575 E6.65529
G1 X98.426 Y112.970 E6.69472
G1 X95.549 Y109.917 E6.89995
G1 X94.441 Y108.660 E6.98191
G1 X93.928 Y108.026 E7.02180
G1 X93.446 Y107.382 E7.06114
G1 X93.003 Y106.730 E7.09973
G1 X92.604 Y106.067 E7.13756
G1 X92.254 Y105.394 E7.17469
G1 X91.959 Y104.709 E7.21118
G1 X91.722 Y104.013 E7.24715
G1 X91.548 Y103.306 E7.28274
G1 X91.442 Y102.591 E7.31811
G1 X91.407 Y101.870 E7.35341
G1 X91.442 Y101.148 E7.38880
G1 X91.550 Y100.427 E7.42445
G1 X91.727 Y99.711 E7.46052
G1 X91.972 Y99.003 E7.49716
G1 X92.279 Y98.304 E7.53452
G1 X92.647 Y97.615 E7.57272
G1 X93.069 Y96.936 E7.61186
G1 X93.542 Y96.265 E7.65201
G1 X94.061 Y95.603 E7.69317
G1 X94.622 Y94.948 E7.73533
G1 X95.218 Y94.299 E7.77843
G1 X95.843 Y93.658 E7.82225
G1 X97.167 Y92.384 E7.91212
G1 X99.880 Y89.884 E8.09260
G1 X101.135 Y88.651 E8.17868
G1 X101.709 Y88.034 E8.21991
G1 X102.229 Y87.421 E8.25922
G1 X102.686 Y86.811 E8.29652
G1 X103.070 Y86.203 E8.33168
G1 X103.369 Y85.597 E8.36472
G1 X103.574 Y84.993 E8.39594
G1 X103.672 Y84.385 E8.42605
G1 X103.650 Y83.768 E8.45624
G1 X103.490 Y83.137 E8.48811
G1 X103.170 Y82.490 E8.52341
G1 X102.670 Y81.831 E8.56387
G1 X101.974 Y81.164 E8.61106
G1 X101.063 Y80.493 E8.66638
G1 X99.956 Y79.841 E8.72925
G1 X90.484 Y79.841 E9.19260
G1 X90.484 Y79.509 E9.20882
G1 X109.516 Y79.509 E10.13983
G1 X109.516 Y79.841 E10.15606
G1 X102.003 Y79.841 E10.52356
G1 X101.784 Y80.525 E10.55873
G1 X102.111 Y80.468 F7800.000
G1 X102.379 Y80.660 E10.57485 F1800.000
G1 X103.157 Y81.367 E10.62628
G1 X103.752 Y82.091 E10.67215
G1 X104.175 Y82.837 E10.71408
G1 X104.430 Y83.603 E10.75355
G1 X104.524 Y84.378 E10.79175
G1 X104.472 Y85.150 E10.82959
G1 X104.294 Y85.909 E10.86776
G1 X104.010 Y86.654 E10.90676
G1 X103.638 Y87.386 E10.94690
G1 X103.194 Y88.106 E10.98830
G1 X102.689 Y88.816 E11.03093
G1 X102.138 Y89.518 E11.07458
G1 X100.932 Y90.905 E11.16448
G1 X98.388 Y93.603 E11.34591
G1 X97.182 Y94.913 E11.43299
G1 X96.096 Y96.189 E11.51496
G1 X95.610 Y96.814 E11.55371
G1 X95.170 Y97.428 E11.59066
G1 X94.778 Y98.030 E11.62577
G1 X94.437 Y98.618 E11.65905
G1 X94.148 Y99.193 E11.69051
G1 X93.913 Y99.754 E11.72028
G1 X93.729 Y100.302 E11.74855
G1 X93.596 Y100.838 E11.77558
G1 X93.512 Y101.367 E11.80176
G1 X93.476 Y101.891 E11.82750
G1 X93.487 Y102.418 E11.85324
G1 X93.546 Y102.950 E11.87944
G1 X93.653 Y103.492 E11.90648
G1 X93.810 Y104.047 E11.93470
G1 X94.018 Y104.616 E11.96431
G1 X94.275 Y105.199 E11.99548
G1 X94.582 Y105.795 E12.02826
G1 X94.934 Y106.403 E12.06264
G1 X95.330 Y107.023 E12.09863
G1 X96.230 Y108.286 E12.17449
G1 X97.238 Y109.579 E12.25471
G1 X98.829 Y111.559 E12.37894
G1 X99.844 Y112.902 E12.46134
G1 X100.309 Y113.579 E12.50150
G1 X100.732 Y114.263 E12.54082
G1 X101.101 Y114.953 E12.57910
G1 X101.404 Y115.651 E12.61634
G1 X101.626 Y116.360 E12.65266
G1 X101.750 Y117.079 E12.68837
G1 X101.757 Y117.807 E12.72397
G1 X101.629 Y118.536 E12.76018
G1 X101.353 Y119.256 E12.79792
G1 X100.980 Y119.865 E12.83285
G1 X109.810 Y119.865 E13.26479
G1 X109.810 Y120.785 E13.30980
G1 X90.190 Y120.785 E14.26958
G1 X90.190 Y119.865 E14.31459
G1 X99.791 Y119.865 E14.78425
G1 X100.174 Y119.417 E14.81311
G1 X100.506 Y118.849 E14.84528
G1 X100.693 Y118.296 E14.87384
G1 X100.757 Y117.752 E14.90063
G1 X100.714 Y117.208 E14.92733
G1 X100.574 Y116.656 E14.95516
G1 X100.345 Y116.095 E14.98481
G1 X100.037 Y115.524 E15.01656
G1 X99.659 Y114.944 E15.05042
G1 X99.221 Y114.358 E15.08621
G1 X98.735 Y113.766 E15.12370
G1 X98.208 Y113.169 E15.16265
G1 X95.332 Y110.115 E15.36787
G1 X94.216 Y108.850 E15.45037
G1 X93.696 Y108.207 E15.49084
G1 X93.207 Y107.553 E15.53079
G1 X92.755 Y106.888 E15.57010
G1 X92.347 Y106.211 E15.60877
G1 X91.989 Y105.520 E15.64687
G1 X91.684 Y104.815 E15.68445
G1 X91.439 Y104.095 E15.72162
G1 X91.259 Y103.363 E15.75851
G1 X91.149 Y102.620 E15.79525
G1 X91.112 Y101.870 E15.83197
G1 X91.149 Y101.119 E15.86879
G1 X91.261 Y100.370 E15.90583
G1 X91.445 Y99.628 E15.94322
G1 X91.697 Y98.896 E15.98110
G1 X92.015 Y98.176 E16.01959
G1 X92.392 Y97.468 E16.05881
G1 X92.824 Y96.773 E16.09885
G1 X93.306 Y96.089 E16.13978
G1 X93.834 Y95.416 E16.18162
G1 X94.401 Y94.753 E16.22435
G1 X95.004 Y94.097 E16.26791
G1 X95.636 Y93.449 E16.31217
G1 X96.965 Y92.170 E16.40242
G1 X99.677 Y89.670 E16.58283
G1 X100.925 Y88.446 E16.66836
G1 X101.489 Y87.838 E16.70893
G1 X101.999 Y87.238 E16.74748
G1 X102.444 Y86.644 E16.78377
G1 X102.813 Y86.059 E16.81760
G1 X103.097 Y85.485 E16.84893
G1 X103.287 Y84.922 E16.87800
G1 X103.377 Y84.367 E16.90551
G1 X103.358 Y83.810 E16.93275
G1 X103.213 Y83.240 E16.96154
G1 X102.919 Y82.646 E16.99396
G1 X102.450 Y82.027 E17.03192
G1 X101.784 Y81.389 E17.07704
G1 X100.901 Y80.739 E17.13069
G1 X99.876 Y80.135 E17.18889
G1 X90.190 Y80.135 E17.66271
G1 X90.190 Y79.215 E17.70771
G1 X109.810 Y79.215 E18.66750
G1 X109.810 Y80.135 E18.71251
G1 X102.218 Y80.135 E19.08391
G1 X102.129 Y80.411 E19.09809
