; generated by Slic3r 1.2.9 on 2017-04-13 at 11:33:47

; external perimeters extrusion width = 0.38mm
; perimeters extrusion width = 0.38mm
; infill extrusion width = 0.38mm
; solid infill extrusion width = 0.38mm
; top infill extrusion width = 0.38mm

M107
M104 S200 ; set temperature
G28 ; home all axes
G1 Z5 F5000 ; lift nozzle

M109 S200 ; wait for temperature to be reached
G21 ; set units to millimeters
G90 ; use absolute coordinates
M82 ; use absolute distances for extrusion
G92 E0
G1 Z0.350 F7800.000
G1 E-2.00000 F2400.00000
G92 E0
G1 X96.733 Y98.992 F7800.000
G1 E2.00000 F2400.00000
G1 X96.376 Y99.319 E2.04397 F1800.000
G1 X96.191 Y99.735 E2.08542
G1 X96.172 Y100.237 E2.13109
G1 X96.479 Y100.858 E2.19406
G1 X97.072 Y101.134 E2.25356
G1 X102.826 Y101.141 E2.77680
G1 X103.190 Y101.195 E2.81029
G1 X103.530 Y101.305 E2.84279
G1 X103.847 Y101.471 E2.87528
G1 X104.132 Y101.687 E2.90779
G1 X104.390 Y101.963 E2.94216
G1 X104.472 Y102.075 E2.95474
G1 X104.652 Y102.402 E2.98872
G1 X104.771 Y102.744 E3.02164
G1 X104.831 Y103.096 E3.05409
G1 X104.831 Y103.453 E3.08658
G1 X104.771 Y103.805 E3.11909
G1 X104.647 Y104.162 E3.15345
G1 X104.494 Y104.440 E3.18228
G1 X104.259 Y104.736 E3.21665
G1 X103.979 Y104.989 E3.25100
G1 X103.865 Y105.068 E3.26357
G1 X103.512 Y105.253 E3.29981
G1 X103.383 Y105.301 E3.31237
G1 X103.010 Y105.388 E3.34721
G1 X102.667 Y105.413 E3.37846
G1 X97.141 Y105.414 E3.88094
G1 X96.732 Y105.540 E3.91984
G1 X96.376 Y105.868 E3.96382
G1 X96.191 Y106.284 E4.00520
G1 X96.172 Y106.786 E4.05090
G1 X96.479 Y107.406 E4.11382
G1 X97.071 Y107.683 E4.17329
G1 X102.826 Y107.690 E4.69658
G1 X103.190 Y107.743 E4.73006
G1 X103.550 Y107.860 E4.76443
G1 X103.675 Y107.919 E4.77700
G1 X103.994 Y108.122 E4.81136
G1 X104.259 Y108.361 E4.84386
G1 X104.482 Y108.641 E4.87637
G1 X104.654 Y108.954 E4.90886
G1 X104.771 Y109.292 E4.94136
G1 X104.831 Y109.644 E4.97383
G1 X104.830 Y110.005 E5.00671
G1 X104.768 Y110.374 E5.04073
G1 X104.728 Y110.507 E5.05331
G1 X104.574 Y110.852 E5.08766
G1 X104.365 Y111.167 E5.12203
G1 X104.275 Y111.271 E5.13459
G1 X103.994 Y111.524 E5.16896
G1 X103.675 Y111.727 E5.20333
G1 X103.550 Y111.785 E5.21589
G1 X103.171 Y111.909 E5.25214
G1 X102.667 Y111.962 E5.29821
G1 X95.158 Y111.962 E5.98096
G1 X95.158 Y110.958 E6.07227
G1 X102.889 Y110.958 E6.77521
G1 X103.448 Y110.730 E6.83015
G1 X103.756 Y110.260 E6.88119
G1 X103.854 Y109.746 E6.92883
G1 X103.598 Y109.026 E6.99828
G1 X102.951 Y108.688 E7.06464
G1 X97.333 Y108.688 E7.57547
G1 X96.829 Y108.634 E7.62155
G1 X96.450 Y108.511 E7.65778
G1 X96.325 Y108.452 E7.67034
G1 X95.989 Y108.239 E7.70657
G1 X95.882 Y108.151 E7.71913
G1 X95.610 Y107.860 E7.75537
G1 X95.528 Y107.748 E7.76793
G1 X95.336 Y107.399 E7.80417
G1 X95.286 Y107.271 E7.81673
G1 X95.186 Y106.885 E7.85297
G1 X95.169 Y106.748 E7.86554
G1 X95.169 Y106.374 E7.89954
G1 X95.229 Y106.017 E7.93244
G1 X95.346 Y105.680 E7.96489
G1 X95.519 Y105.367 E7.99740
G1 X95.741 Y105.086 E8.02990
G1 X96.006 Y104.847 E8.06239
G1 X96.308 Y104.656 E8.09490
G1 X96.638 Y104.517 E8.12742
G1 X97.002 Y104.432 E8.16143
G1 X97.154 Y104.415 E8.17538
G1 X102.952 Y104.409 E8.70252
G1 X103.598 Y104.071 E8.76883
G1 X103.882 Y103.274 E8.84575
G1 X103.598 Y102.478 E8.92259
G1 X102.951 Y102.139 E8.98894
G1 X97.333 Y102.139 E9.49981
G1 X96.990 Y102.114 E9.53106
G1 X96.637 Y102.031 E9.56403
G1 X96.308 Y101.893 E9.59653
G1 X95.989 Y101.690 E9.63090
G1 X95.882 Y101.602 E9.64346
G1 X95.624 Y101.327 E9.67783
G1 X95.426 Y101.029 E9.71033
G1 X95.272 Y100.684 E9.74469
G1 X95.232 Y100.551 E9.75725
G1 X95.169 Y100.179 E9.79164
G1 X95.169 Y99.804 E9.82565
G1 X95.222 Y99.488 E9.85483
G1 X95.345 Y99.135 E9.88882
G1 X95.529 Y98.800 E9.92360
G1 X95.610 Y98.688 E9.93612
G1 X95.866 Y98.416 E9.97012
G1 X96.170 Y98.184 E10.00489
G1 X96.289 Y98.115 E10.01740
G1 X96.638 Y97.969 E10.05178
G1 X97.002 Y97.883 E10.08579
G1 X97.154 Y97.867 E10.09974
G1 X102.860 Y97.860 E10.61856
G1 X103.268 Y97.734 E10.65738
G1 X103.683 Y97.352 E10.70862
G1 X103.873 Y96.653 E10.77453
G1 X103.579 Y95.919 E10.84641
G1 X102.952 Y95.591 E10.91075
G1 X97.174 Y95.585 E11.43610
G1 X96.790 Y95.528 E11.47138
G1 X96.653 Y95.489 E11.48435
G1 X96.290 Y95.337 E11.52016
G1 X96.166 Y95.265 E11.53315
G1 X95.868 Y95.039 E11.56716
G1 X95.624 Y94.778 E11.59967
G1 X95.426 Y94.480 E11.63218
G1 X95.280 Y94.154 E11.66468
G1 X95.186 Y93.788 E11.69904
G1 X95.169 Y93.650 E11.71162
G1 X95.169 Y93.277 E11.74562
G1 X95.229 Y92.920 E11.77852
G1 X95.346 Y92.583 E11.81097
G1 X95.528 Y92.252 E11.84534
G1 X95.622 Y92.123 E11.85976
G1 X95.725 Y92.003 E11.87420
G1 X96.003 Y91.753 E11.90820
G1 X96.309 Y91.558 E11.94112
G1 X96.653 Y91.414 E11.97508
G1 X96.970 Y91.339 E12.00471
G1 X97.333 Y91.312 E12.03782
G1 X102.951 Y91.312 E12.54866
G1 X103.598 Y90.974 E12.61501
G1 X103.854 Y90.255 E12.68444
G1 X103.756 Y89.740 E12.73210
G1 X103.448 Y89.270 E12.78317
G1 X102.888 Y89.042 E12.83812
G1 X95.158 Y89.042 E13.54102
G1 X95.158 Y88.038 E13.63230
G1 X102.669 Y88.040 E14.31524
G1 X103.012 Y88.064 E14.34648
G1 X103.383 Y88.151 E14.38112
G1 X103.512 Y88.199 E14.39368
G1 X103.865 Y88.383 E14.42992
G1 X103.979 Y88.462 E14.44248
G1 X104.259 Y88.715 E14.47685
G1 X104.481 Y88.995 E14.50935
G1 X104.654 Y89.308 E14.54184
G1 X104.771 Y89.646 E14.57435
G1 X104.831 Y89.999 E14.60686
G1 X104.831 Y90.376 E14.64122
G1 X104.814 Y90.513 E14.65378
G1 X104.714 Y90.899 E14.69002
G1 X104.664 Y91.028 E14.70257
G1 X104.472 Y91.376 E14.73874
G1 X104.388 Y91.492 E14.75171
G1 X104.118 Y91.779 E14.78759
G1 X104.011 Y91.867 E14.80017
G1 X103.692 Y92.070 E14.83454
G1 X103.363 Y92.208 E14.86704
G1 X103.010 Y92.291 E14.90001
G1 X102.667 Y92.316 E14.93126
G1 X97.141 Y92.317 E15.43375
G1 X96.732 Y92.443 E15.47262
G1 X96.376 Y92.771 E15.51658
G1 X96.183 Y93.204 E15.55973
G1 X96.183 Y93.760 E15.61035
G1 X96.553 Y94.380 E15.67599
G1 X97.133 Y94.586 E15.73195
G1 X102.846 Y94.593 E16.25145
G1 X102.995 Y94.608 E16.26499
G1 X103.363 Y94.694 E16.29936
G1 X103.692 Y94.833 E16.33186
G1 X103.994 Y95.025 E16.36437
G1 X104.259 Y95.264 E16.39686
G1 X104.481 Y95.544 E16.42937
G1 X104.664 Y95.875 E16.46374
G1 X104.768 Y96.174 E16.49256
G1 X104.830 Y96.543 E16.52657
G1 X104.831 Y96.905 E16.55946
G1 X104.771 Y97.257 E16.59192
G1 X104.654 Y97.594 E16.62443
G1 X104.472 Y97.926 E16.65879
G1 X104.275 Y98.174 E16.68761
G1 X103.994 Y98.427 E16.72198
G1 X103.675 Y98.629 E16.75628
G1 X103.546 Y98.690 E16.76925
G1 X103.171 Y98.811 E16.80512
G1 X103.030 Y98.838 E16.81816
G1 X102.667 Y98.865 E16.85129
G1 X97.141 Y98.865 E17.35377
G1 X96.790 Y98.974 E17.38715
G1 X96.802 Y100.102 F7800.000
G1 X96.942 Y100.384 E17.41577 F1800.000
G1 X97.211 Y100.510 E17.44275
G1 X102.872 Y100.516 E17.95756
G1 X103.333 Y100.584 E17.99996
G1 X103.773 Y100.727 E18.04200
G1 X104.183 Y100.941 E18.08404
G1 X104.551 Y101.221 E18.12609
G1 X104.873 Y101.563 E18.16881
G1 X105.000 Y101.739 E18.18852
G1 X105.225 Y102.147 E18.23083
G1 X105.379 Y102.587 E18.27329
G1 X105.456 Y103.043 E18.31531
G1 X105.456 Y103.505 E18.35736
G1 X105.379 Y103.961 E18.39941
G1 X105.224 Y104.405 E18.44211
G1 X105.008 Y104.797 E18.48284
G1 X104.717 Y105.166 E18.52556
G1 X104.368 Y105.480 E18.56826
G1 X104.190 Y105.604 E18.58798
G1 X103.767 Y105.825 E18.63137
G1 X103.563 Y105.900 E18.65108
G1 X103.104 Y106.008 E18.69396
G1 X102.690 Y106.038 E18.73176
G1 X97.235 Y106.039 E19.22772
G1 X97.052 Y106.096 E19.24521
G1 X96.894 Y106.240 E19.26466
G1 X96.811 Y106.428 E19.28333
G1 X96.802 Y106.651 E19.30361
G1 X96.942 Y106.933 E19.33220
G1 X97.210 Y107.058 E19.35918
G1 X102.872 Y107.065 E19.87400
G1 X103.333 Y107.133 E19.91640
G1 X103.780 Y107.278 E19.95912
G1 X103.976 Y107.370 E19.97883
G1 X104.373 Y107.622 E20.02154
G1 X104.717 Y107.931 E20.06359
G1 X105.004 Y108.294 E20.10564
G1 X105.227 Y108.699 E20.14767
G1 X105.379 Y109.136 E20.18972
G1 X105.456 Y109.591 E20.23175
G1 X105.455 Y110.058 E20.27420
G1 X105.377 Y110.517 E20.31652
G1 X105.315 Y110.725 E20.33623
G1 X105.124 Y111.154 E20.37894
G1 X104.864 Y111.545 E20.42166
G1 X104.722 Y111.709 E20.44137
G1 X104.373 Y112.023 E20.48408
G1 X103.976 Y112.275 E20.52680
G1 X103.780 Y112.367 E20.54651
G1 X103.326 Y112.515 E20.58990
G1 X103.112 Y112.556 E20.60977
G1 X102.690 Y112.587 E20.64825
G1 X94.533 Y112.587 E21.38990
G1 X94.533 Y110.333 E21.59486
G1 X102.767 Y110.333 E22.34349
G1 X103.032 Y110.225 E22.36957
G1 X103.165 Y110.022 E22.39165
G1 X103.208 Y109.795 E22.41262
G1 X103.091 Y109.466 E22.44434
G1 X102.798 Y109.313 E22.47448
G1 X97.310 Y109.313 E22.97343
G1 X96.888 Y109.282 E23.01191
G1 X96.674 Y109.241 E23.03179
G1 X96.220 Y109.093 E23.07517
G1 X96.024 Y109.001 E23.09488
G1 X95.621 Y108.745 E23.13826
G1 X95.454 Y108.607 E23.15798
G1 X95.127 Y108.259 E23.20136
G1 X95.000 Y108.084 E23.22107
G1 X94.770 Y107.666 E23.26446
G1 X94.690 Y107.464 E23.28417
G1 X94.571 Y107.002 E23.32756
G1 X94.544 Y106.787 E23.34727
G1 X94.544 Y106.322 E23.38958
G1 X94.621 Y105.861 E23.43204
G1 X94.773 Y105.425 E23.47406
G1 X94.996 Y105.020 E23.51611
G1 X95.283 Y104.657 E23.55816
G1 X95.627 Y104.348 E23.60020
G1 X96.017 Y104.100 E23.64224
G1 X96.444 Y103.921 E23.68429
G1 X96.897 Y103.814 E23.72661
G1 X97.121 Y103.791 E23.74709
G1 X102.798 Y103.784 E24.26330
G1 X103.091 Y103.631 E24.29342
G1 X103.218 Y103.274 E24.32782
G1 X103.091 Y102.918 E24.36219
G1 X102.798 Y102.764 E24.39233
G1 X97.310 Y102.764 E24.89130
G1 X96.896 Y102.734 E24.92910
G1 X96.444 Y102.628 E24.97132
G1 X96.017 Y102.448 E25.01336
G1 X95.621 Y102.197 E25.05607
G1 X95.454 Y102.059 E25.07578
G1 X95.132 Y101.716 E25.11850
G1 X94.876 Y101.331 E25.16054
G1 X94.685 Y100.902 E25.20325
G1 X94.623 Y100.694 E25.22297
G1 X94.544 Y100.231 E25.26569
G1 X94.544 Y99.766 E25.30801
G1 X94.619 Y99.320 E25.34912
G1 X94.772 Y98.880 E25.39143
G1 X95.000 Y98.464 E25.43456
G1 X95.127 Y98.289 E25.45426
G1 X95.446 Y97.950 E25.49657
G1 X95.823 Y97.663 E25.53970
G1 X96.011 Y97.554 E25.55939
G1 X96.444 Y97.372 E25.60211
G1 X96.897 Y97.266 E25.64442
G1 X97.121 Y97.242 E25.66490
G1 X102.765 Y97.236 E26.17812
G1 X102.948 Y97.179 E26.19559
G1 X103.127 Y97.014 E26.21764
G1 X103.215 Y96.691 E26.24812
G1 X103.084 Y96.366 E26.27997
G1 X102.798 Y96.216 E26.30938
G1 X97.128 Y96.209 E26.82495
G1 X96.660 Y96.140 E26.86799
G1 X96.446 Y96.080 E26.88812
G1 X96.011 Y95.897 E26.93108
G1 X95.819 Y95.786 E26.95122
G1 X95.449 Y95.505 E26.99353
G1 X95.132 Y95.168 E27.03558
G1 X94.876 Y94.782 E27.07762
G1 X94.688 Y94.360 E27.11967
G1 X94.571 Y93.905 E27.16238
G1 X94.544 Y93.690 E27.18210
G1 X94.544 Y93.225 E27.22441
G1 X94.621 Y92.764 E27.26687
G1 X94.773 Y92.328 E27.30889
G1 X95.000 Y91.916 E27.35161
G1 X95.131 Y91.735 E27.37199
G1 X95.278 Y91.565 E27.39237
G1 X95.624 Y91.254 E27.43468
G1 X96.018 Y91.003 E27.47714
G1 X96.446 Y90.822 E27.51944
G1 X96.888 Y90.718 E27.56072
G1 X97.310 Y90.687 E27.59920
G1 X102.798 Y90.687 E28.09816
G1 X103.091 Y90.533 E28.12829
G1 X103.208 Y90.205 E28.16000
G1 X103.165 Y89.978 E28.18098
G1 X103.032 Y89.775 E28.20307
G1 X102.766 Y89.667 E28.22917
G1 X94.533 Y89.667 E28.97777
G1 X94.533 Y87.413 E29.18271
G1 X102.690 Y87.415 E29.92444
G1 X103.105 Y87.444 E29.96223
G1 X103.563 Y87.551 E30.00504
G1 X103.767 Y87.627 E30.02475
G1 X104.189 Y87.848 E30.06814
G1 X104.368 Y87.972 E30.08785
G1 X104.717 Y88.286 E30.13056
G1 X105.004 Y88.648 E30.17261
G1 X105.227 Y89.053 E30.21465
G1 X105.379 Y89.490 E30.25669
G1 X105.456 Y89.946 E30.29874
G1 X105.456 Y90.416 E30.34145
G1 X105.429 Y90.631 E30.36116
G1 X105.310 Y91.093 E30.40455
G1 X105.230 Y91.294 E30.42426
G1 X105.000 Y91.712 E30.46762
G1 X104.870 Y91.891 E30.48775
G1 X104.546 Y92.236 E30.53074
G1 X104.379 Y92.374 E30.55045
G1 X103.983 Y92.626 E30.59317
G1 X103.556 Y92.805 E30.63521
G1 X103.104 Y92.911 E30.67742
G1 X102.690 Y92.941 E30.71523
G1 X97.235 Y92.942 E31.21119
G1 X97.052 Y92.999 E31.22867
G1 X96.894 Y93.143 E31.24811
G1 X96.808 Y93.337 E31.26741
G1 X96.808 Y93.588 E31.29022
G1 X96.974 Y93.867 E31.31975
G1 X97.241 Y93.962 E31.34551
G1 X102.880 Y93.968 E31.85819
G1 X103.099 Y93.991 E31.87825
G1 X103.556 Y94.098 E31.92096
G1 X103.983 Y94.277 E31.96301
G1 X104.373 Y94.525 E32.00505
G1 X104.717 Y94.834 E32.04710
G1 X105.004 Y95.197 E32.08914
G1 X105.230 Y95.608 E32.13186
G1 X105.377 Y96.031 E32.17258
G1 X105.455 Y96.490 E32.21489
G1 X105.456 Y96.957 E32.25735
G1 X105.379 Y97.413 E32.29938
G1 X105.227 Y97.850 E32.34142
G1 X105.000 Y98.261 E32.38414
G1 X104.722 Y98.612 E32.42486
G1 X104.373 Y98.926 E32.46757
G1 X103.977 Y99.178 E32.51026
G1 X103.776 Y99.272 E32.53039
G1 X103.327 Y99.418 E32.57337
G1 X103.112 Y99.459 E32.59326
G1 X102.690 Y99.490 E32.63174
G1 X97.235 Y99.490 E33.12770
G1 X97.052 Y99.547 E33.14516
G1 X96.894 Y99.692 E33.16460
G1 X96.811 Y99.879 E33.18329
G1 X96.804 Y100.042 E33.19811
G1 X96.587 Y100.332 F7800.000
G1 E31.19811 F2400.00000
G92 E0
G1 X95.471 Y111.460 F7800.000
G1 E2.00000 F2400.00000
G1 X102.950 Y111.449 E2.68009 F1800.000
G1 X103.431 Y111.283 E2.72635
G1 X103.704 Y111.142 E2.75429
G1 X103.791 Y111.070 E2.76452
G1 X103.963 Y110.862 E2.78915
G1 X104.131 Y110.608 E2.81679
G1 X104.229 Y110.414 E2.83658
G1 X104.326 Y109.963 E2.87854
G1 X104.346 Y109.684 E2.90392
G1 X104.187 Y109.162 E2.95355
G1 X103.989 Y108.757 E2.99455
G1 X103.920 Y108.675 E3.00431
G1 X103.430 Y108.365 E3.05702
G1 X103.080 Y108.214 E3.09166
G1 X102.789 Y108.189 E3.11820
G1 X97.352 Y108.186 E3.61261
G1 X96.951 Y108.162 E3.64915
G1 X96.570 Y108.008 E3.68651
G1 X96.208 Y107.804 E3.72425
G1 X96.109 Y107.711 E3.73660
G1 X95.954 Y107.479 E3.76202
G1 X95.799 Y107.182 E3.79247
G1 X95.701 Y106.931 E3.81699
G1 X95.675 Y106.792 E3.82983
G1 X95.677 Y106.416 E3.86398
G1 X95.711 Y106.140 E3.88924
G1 X95.812 Y105.887 E3.91401
G1 X95.997 Y105.551 E3.94890
G1 X96.310 Y105.248 E3.98853
G1 X96.521 Y105.097 E4.01212
G1 X97.040 Y104.929 E4.06172
G1 X97.181 Y104.915 E4.07463
G1 X102.648 Y104.911 E4.57175
G1 X102.935 Y104.901 E4.59783
G1 X103.107 Y104.871 E4.61369
G1 X103.307 Y104.792 E4.63324
G1 X103.604 Y104.636 E4.66373
G1 X103.923 Y104.420 E4.69876
G1 X103.989 Y104.340 E4.70820
G1 X104.176 Y103.965 E4.74638
G1 X104.277 Y103.679 E4.77394
G1 X104.361 Y103.327 E4.80684
G1 X104.347 Y103.136 E4.82420
G1 X104.277 Y102.871 E4.84915
G1 X104.185 Y102.610 E4.87429
G1 X103.990 Y102.208 E4.91491
G1 X103.809 Y102.046 E4.93706
G1 X103.576 Y101.898 E4.96214
G1 X103.080 Y101.666 E5.01194
G1 X102.789 Y101.640 E5.03849
G1 X97.352 Y101.637 E5.53291
G1 X97.002 Y101.619 E5.56475
G1 X96.792 Y101.555 E5.58469
G1 X96.542 Y101.444 E5.60953
G1 X96.208 Y101.255 E5.64445
G1 X96.109 Y101.163 E5.65677
G1 X95.874 Y100.783 E5.69742
G1 X95.745 Y100.508 E5.72502
G1 X95.699 Y100.382 E5.73718
G1 X95.672 Y100.136 E5.75969
G1 X95.701 Y99.622 E5.80654
G1 X95.810 Y99.342 E5.83387
G1 X95.952 Y99.058 E5.86266
G1 X96.205 Y98.792 E5.89609
G1 X96.454 Y98.584 E5.92558
G1 X96.793 Y98.448 E5.95885
G1 X97.040 Y98.380 E5.98208
G1 X97.181 Y98.366 E5.99499
G1 X102.908 Y98.353 E6.51570
G1 X103.363 Y98.226 E6.55870
G1 X103.544 Y98.138 E6.57697
G1 X103.915 Y97.822 E6.62132
G1 X104.075 Y97.646 E6.64292
G1 X104.193 Y97.389 E6.66861
G1 X104.274 Y97.129 E6.69339
G1 X104.332 Y96.863 E6.71814
G1 X104.356 Y96.583 E6.74368
G1 X104.200 Y96.093 E6.79045
G1 X103.966 Y95.639 E6.83687
G1 X103.896 Y95.561 E6.84641
G1 X103.457 Y95.284 E6.89368
G1 X103.107 Y95.129 E6.92844
G1 X102.820 Y95.092 E6.95474
G1 X97.211 Y95.086 E7.46477
G1 X97.020 Y95.066 E7.48226
G1 X96.820 Y95.011 E7.50110
G1 X96.511 Y94.892 E7.53119
G1 X96.292 Y94.779 E7.55358
G1 X96.212 Y94.715 E7.56292
G1 X96.019 Y94.465 E7.59166
G1 X95.747 Y93.991 E7.64131
G1 X95.700 Y93.847 E7.65513
G1 X95.676 Y93.618 E7.67600
G1 X95.676 Y93.319 E7.70325
G1 X95.705 Y93.063 E7.72663
G1 X95.812 Y92.790 E7.75331
G1 X95.951 Y92.510 E7.78175
G1 X96.085 Y92.355 E7.80036
G1 X96.456 Y92.039 E7.84467
G1 X96.536 Y91.993 E7.85308
G1 X96.925 Y91.858 E7.89049
G1 X97.093 Y91.824 E7.90611
G1 X97.352 Y91.814 E7.92963
G1 X102.648 Y91.814 E8.41125
G1 X102.935 Y91.804 E8.43733
G1 X103.106 Y91.774 E8.45313
G1 X103.457 Y91.619 E8.48795
G1 X103.785 Y91.424 E8.52265
G1 X103.990 Y91.243 E8.54754
G1 X104.200 Y90.809 E8.59136
G1 X104.324 Y90.420 E8.62854
G1 X104.346 Y90.247 E8.64440
